24x24/actions/view-readermode-active.svg

<svg xmlns="http://www.w3.org/2000/svg" width="24" height="24"><defs><style id="current-color-scheme" type="text/css"></style></defs><path style="fill:currentColor;color:#323a41" d="M16 14a2 2 0 0 1-2 2 2 2 0 0 1-2-2 2 2 0 0 1 2-2 2 2 0 0 1 2 2zM4.5 1c-1 0-2 .8-4 .8H0V16h11.77a3 3 0 0 1-.77-2 3 3 0 0 1 1.324-2.484C11.549 11.353 10.775 11 10 11c-1 0-2 .6-2 .6V2.65S9 2 10 2s2 .65 3 .65v8.524A3 3 0 0 1 14 11a3 3 0 0 1 1 .176V1.8h-.5c-2 0-3-.8-4-.8s-1.5 0-3 .8C6 1 5.5 1 4.5 1zM5 2c1 0 2 .65 2 .65v8.95S6 11 5 11s-2 .6-3 .6V2.65c.5 0 2-.65 3-.65z" transform="translate(4 4)"/></svg>

<svg xmlns="http://www.w3.org/2000/svg" width="24" height="24" version="1.1">
 <defs>
  <style id="current-color-scheme" type="text/css">
   .ColorScheme-Text { color:#323a41; } .ColorScheme-Highlight { color:#4285f4; } .ColorScheme-NeutralText { color:#ff9800; } .ColorScheme-PositiveText { color:#4caf50; } .ColorScheme-NegativeText { color:#f44336; }
  </style>
 </defs>
 <g transform="translate(4,4)">
  <path style="fill:currentColor" class="ColorScheme-Text" d="M 16,14 A 2,2 0 0 1 14,16 2,2 0 0 1 12,14 2,2 0 0 1 14,12 2,2 0 0 1 16,14 Z M 4.5,1 C 3.5,1 2.5,1.8 0.5,1.8 H 0 V 16 H 11.77 A 3,3 0 0 1 11,14 3,3 0 0 1 12.324,11.516 C 11.549,11.353 10.775,11 10,11 9,11 8,11.6 8,11.6 V 2.65 C 8,2.65 9,2 10,2 11,2 12,2.65 13,2.65 V 11.174 A 3,3 0 0 1 14,11 3,3 0 0 1 15,11.176 V 1.8 H 14.5 C 12.5,1.8 11.5,1 10.5,1 9.5,1 9,1 7.5,1.8 6,1 5.5,1 4.5,1 Z M 5,2 C 6,2 7,2.65 7,2.65 V 11.6 C 7,11.6 6,11 5,11 4,11 3,11.6 2,11.6 V 2.65 C 2.5,2.65 4,2 5,2 Z"/>
 </g>
</svg>
